icons/a4-landscape-32.svg

<?xml version="1.0" encoding="UTF-8"?><svg id="icons" xmlns="http://www.w3.org/2000/svg" viewBox="0 0 32 32"><defs><style>.cls-1{fill:none;}.cls-1,.cls-2,.cls-3{stroke-width:0px;}.cls-2{opacity:.25;}</style></defs><rect class="cls-1" width="32" height="32"/><path class="cls-3" d="M23.30103,5H2v22h2v-1h-1V6h19v8h8v12h-2v1h3v-14.29999l-7.69897-7.70001ZM23,13v-7l7,7h-7ZM24,29.9248h-1v-3h-5.98633l6.98633-9.52734v8.60254h2v.9248h-2v3ZM18.98633,26h4.01367v-5.54785l-4.01367,5.54785ZM7.76054,26h5.62207l1.61739,4h.9l-1.82842-4.94263v-.05737h-.02405l-2.93384-7h-1.08423l-2.93384,7h-.02405v.05737l-2.07159,4.94263h1.08398l1.67657-4ZM10.57158,19.29346l2.39185,5.70654h-4.78369l2.39185-5.70654Z"/><path class="cls-2" d="M22,9H3v-3h19v3Z"/></svg>

<svg xmlns="http://www.w3.org/2000/svg" viewBox="0 0 32 32"><path stroke-width="0" fill="none" d="M0 0h32v32H0z"/><path d="M23.301 5H2v22h2v-1H3V6h19v8h8v12h-2v1h3V12.7L23.301 5zM23 13V6l7 7h-7zm1 16.925h-1v-3h-5.986L24 17.397V26h2v.925h-2v3zM18.986 26H23v-5.548L18.986 26zM7.761 26h5.622L15 30h.9l-1.828-4.943V25h-.024l-2.934-7h-1.085l-2.933 7h-.024v.057L5 30h1.084l1.677-4zm2.81-6.707L12.964 25H8.18l2.392-5.707z" stroke-width="0"/><path d="M22 9H3V6h19v3z" opacity=".25" stroke-width="0"/></svg>
